!!!COM: Ernest Chausson
!!!CNT: Francais
!!!TXO: Francais
!!!OTL: "Fauves las"
!!!LYR: Maeterlinck
!!!OPR: Serres chaude
!!!OPS: Op. 24
!!!ONM: No. 4
!!!ENC: Emily Thomas
!!!YOR: CD Sheet Music French Art Songs, The Ultimate Collection
!!!YOR: CD Sheet Music, LLC 2003
!!!ODT: 1896/
!!NB: Vocal melody and text encoded.
**kern	**silbe
=1	=1
*clefG2	*
*k[b-e-a-d-]	*
*M4/4	*
*MM[Tre\s mode/re/ment anime/]	*
4r	.
{[4cc	{O
8cc]	|
8cc	les
8cc	pas-
8cc	-si-
=2	=2
[2dd	-ons
4dd]	|
8dd	en
8dd	al-
=3	=3
2cc}	-le/es,}
4r	.
{8cc	{Et
8cc	les
=3	=3
4.ddn	ri-
8ddn	-res
8r	.
8ee-	et
8ee-	les
8ee-	san-
=4	=4
1een}	-glots!}
=5	=5
8r	.
{8ee-	{Ma-
2ee-	-la-
4an}	-des}
=6	=6
4r	.
{8cc	{et
8cc	les
4.cc	yeux
8cc	mi-
=7	=7
[2dd-	-clos
8dd-]	|
8dd-	Par-
8ee-	-mi
8ff-	les
=8	=8
8een	feuil-
8bn	-les
8an	ef-
8g	-feuil-
[4g	-le/es,
8g]}	|}
8r	.
=9	=9
4r	.
{8een	{Les
8ddn	chiens
8ddn	jau-
8b-	-nes
12b-	de
12b-	mes
12b-	pe/-
=10	=10
2an}	-che/s,}
8r	.
{8an	{Les
8an	hye\-
8ccn	-nes
=11	=11
8ccn	lou-
8a-	-ches
8g	de
8f	mes
4f	hai-
8f}	-nes}
8r	.
=12	=12
{8g	{Et
8g	sur
8an	l'en-
8bn	-nui
4b-	pa^-
8.f#	-le
16f#	des
=13	=13
4.fn	plai-
8fn}	-nes}
4r	.
{8fn	{Les
8fn	li-
=14	=14
8en	-ons
8en	de
8en	l'a-
[4.en	-mour
8en]	|
8cc	cou-
=15	=15
1cc}	-che/s!}
=16	=16
2r	.
8r	.
{8g	En
8a-	l'im-
8b-	-puis-
=17	=17
4.b-	-san-
8b-	-ce
4a-	de
4a-	leur
=18	=18
2g	re^ve
4g-	Et
4f	lan-
=19	=19
4.dd-	-gui-
8g}	-des}
8r	.
{8g	{sous
8a-	la
8b-	lan-
=20	=20
4.cc	-gueur
8cc	De
4dd-	leur
4dd-	ciel
=21	=21
[2dd-	morne
8dd-]	|
8dd-	et
8ee-	sans
8een	cou-
=22	=22
[1ee-	-leur
=23	=23
4ee-_	|
8ee-]}	|}
8r	.
{12cc	El0
12cc	-les
12cc	re-
8dd-	-gar-
8ee-	-de-
=24	=24
2.gg-	-ront
4b-	sans
=25	=25
4.b-	tre\-
8b-}	-ve}
8r	.
{4a-	Les
8g-	bre-
=26	=26
2f	-bis
8f	des
8f	ten-
8f	-ta-
8f	-ti-
=27	=27
[2g	-ons
4g]}	|}
{8g	{S'e/-
8g	-loi-
=28	=28
[2b-	-gner
8b-]}	|}
8r	.
{[4g-	{len-
=29	=29
2g-]	|
8g-	-tes
8r	.
8g-	une
8g-	a\
=30	=30
2f	u-
4f}	-ne}
4r	.
=31	=31
8r	.
{8f	En
8f	l'im-
8f	-mo-
4.b-	-bi-
8b-	-le
=32	=32
4a-	clair
4a-	de
4g-	lu-
[4f	-ne
=33	=33
4f]}	|}
4r	.
8r	.
{8f	{Mes
8f	im-
8f	-mo-
=34	=34
4.bn	-bi-
8bn	-les
4cc	pas-
4dd-	-si-
=35	=35
[2dd-	-ons!
4dd-_	|
8dd-]}	|}
8r	.
==	==
*-	*-
